X: 100382
M: C|
L: 1/8
K: D
uF |\
(D>A)(F>A) B>AB<d | (.A>.B)(d>e) f<dd ||
ue |\
f<dd>e (f/g/)a/g/ (f<d) | (.B>.A)(B>d) {f}e>de<g |\
f<dd>e (f/g/)a/g/ (f<d) | (.A>.B)(d>e) f<dd>e |
(3fga (3bag (3afd (3dcd | (3Bcd (3efg (3fed (3cBA |\
(D>A)(F>A) B>AB<d | (.A>.B)(d>e) "_Segue Reel."f<dd "^D.C."|]


